X: 1
T: Chwi Fechgyn Glan Fri
R: jig
O: Wales
M: 6/8
L: 1/8
K: D
|: A \
| "D"dAA "G"BGG | "D"ABA "A7"f2e |1 "D"dAA "G"BGG | "A7"Adc "D"d2 :|2 "D"dAA "G"BAG | "A7"ABc "D"d2 :|
|: e \
| "D"fef "G"gfg | "D"agf "A7"g2e | "D"fed "A7"eAA | "E7"ABA "A7"f2e \
| "D"dAA A2d | "G"BGG "A7"G2E | "D"FGA "G"BAG |  "A7"Adc "D"d2 :|
